public/assets/img/material-icons/texture.svg

<svg height="24" viewBox="0 0 24 24" width="24" xmlns="http://www.w3.org/2000/svg"><path d="m19.51 3.08-16.43 16.43c.09.34.27.65.51.9.25.24.56.42.9.51l16.44-16.43c-.19-.69-.73-1.23-1.42-1.41zm-7.63-.08-8.88 8.88v2.83l11.71-11.71zm-6.88 0c-1.1 0-2 .9-2 2v2l4-4zm14 18c.55 0 1.05-.22 1.41-.59.37-.36.59-.86.59-1.41v-2l-4 4zm-9.71 0h2.83l8.88-8.88v-2.83z"/></svg>

<svg xmlns="http://www.w3.org/2000/svg" width="24" height="24" viewBox="0 0 24 24"><path d="M19.51 3.08 3.08 19.51c.09.34.27.65.51.9.25.24.56.42.9.51L20.93 4.49c-.19-.69-.73-1.23-1.42-1.41zM11.88 3 3 11.88v2.83L14.71 3h-2.83zM5 3c-1.1 0-2 .9-2 2v2l4-4H5zm14 18c.55 0 1.05-.22 1.41-.59.37-.36.59-.86.59-1.41v-2l-4 4h2zm-9.71 0h2.83L21 12.12V9.29L9.29 21z"/></svg>
